!!!!SEGMENT: pl-kk--kk-i-3--060-002_anonim--aliud-per-octavas-agnus-dei.krn
!!!cenid: 15xx:720
!!!COM: Anonim
!!!COM-rismID:
!!!CDT:
!!!CNT:
!!!OPR: Aliud per octavas
!!!OTL: Agnus Dei
!!!OMV: 002
!!!PDT:
!!!AGN:
!!!SMS-siglum: PL-Kk
!!!SMS-shelfmark: Kk.I.3
!!!SMS-shelfwork: 060-002 M
!!!SMS-variant:
!!!SMS-altvar:
!!!NIFC-rismSourceID: 1001145493
!!!NIFC-islandoraID: pl-kk:1170
!!!URL-pdf-islandora: https://repozytorium.nifc.pl/islandora/object/pl-kk%3A1170/datastream/PDF/view
!!!URL-scan: https://polish.musicsources.pl/pl/lokalizacje/galeria/rekopisy/5919 @EN{Scan on Polish Music Herritage in Open Access Website} @PL{Skany w portalu Dziedzictwo Muzyki Polskiej w otwartym dostępie}
!!!ONB-nifc: UWAGA: Discantus (s. 161v-162v, skan 0164-0165), Tenor (s. 122v-123v, skan 0295-0296), Bassus (s. 154v-155v, skan 0458-0459)
!!!OMD:
!!!AIN: 1 bass 1 tenor 1 vox
!!!key: F
**kern	**text	**kern	**text	**kern	**text
*part3	*part3	*part2	*part2	*part1	*part1
*staff3	*staff3	*staff2	*staff2	*staff1	*staff1
*I"[Bassus]	*	*I"[Tenore]	*	*I"[Discantus]	*
*I'B	*	*I'T	*	*I'S	*
*Ibass	*	*Itenor	*	*Ivox	*
*ICvox	*	*ICvox	*	*ICvox	*
*clefF4	*	*clefC4	*	*clefC3	*
*k[b-]	*	*k[b-]	*	*k[b-]	*
*F:	*	*F:	*	*F:	*
*M2/1	*	*M2/1	*	*M2/1	*
*	*	*met(C|)	*	*met(C|)	*
=1-	=1-	=1-	=1-	=1-	=1-
*	*	*lig	*	*	*
!	!	!	!	!LO:TX:t=P:problem=oddech/cezura na różnej wysokości (Discantus)	!
2r	.	1c	A-	2r	.
1F	A-	.	.	1a	A-
.	.	1A	.	.	.
2D/	-gnus	.	.	1f\	-gnus
*	*	*Xlig	*	*	*
=2-	=2-	=2-	=2-	=2-	=2-
*	*	*lig	*	*	*
0C	De-	1c	.	.	.
.	.	.	.	4e\	.
.	.	.	.	4d\	.
.	.	1G	.	1e	De-
*	*	*Xlig	*	*	*
=3-	=3-	=3-	=3-	=3-	=3-
1FF	-i	1A	.	1f	-i
*	*ij	*	*	*	*ij
2.BB-/	A-	0F	.	2.d\	A-
4C/	-gnus	.	.	4e\	-gnus
=4-	=4-	=4-	=4-	=4-	=4-
1D	De-	.	.	2f\	De-
*	*	*	*	*custos:c	*
.	.	.	.	1d	.
*	*	*lig	*	*	*
1AA	-i	1E	.	.	.
*	*Xij	*	*	*	*
!	!	!	!	!LO:LB:g=original	!
.	.	.	.	2c#X/	.
=5-	=5-	=5-	=5-	=5-	=5-
2r	.	1D	.	2d\	-i
*	*	*	*	*	*Xij
1F	A-	.	.	2f\	a-
*	*	*Xlig	*	*	*
.	.	1G	.	2d\	.
2E\	-gnus	.	.	2e\	-gnus
=6-	=6-	=6-	=6-	=6-	=6-
*custos:C	*	*	*	*	*
1D	De-	1F	-gnus	1f	De-
*	*	*lig	*	*	*
!LO:PB:g=original	!	!	!	!	!
2C/	-i	1c	De-	1e	-i
*	*ij	*	*	*	*
1c\	A-	.	.	.	.
=7-	=7-	=7-	=7-	=7-	=7-
*	*	*custos:c	*	*	*
.	.	1d	.	2r	.
*	*	*	*	*	*ij
2B-\	-gnus	.	.	2g\	A-
*	*	*Xlig	*	*	*
*	*	*lig	*	*	*
!	!	!LO:PB:g=original	!	!	!
1A	De-	1c	.	2e\	-gnus
.	.	.	.	2f\	De-
=8-	=8-	=8-	=8-	=8-	=8-
1G,<	-i	1d	.	2g\	.
.	.	.	.	2g\	.
*	*	*Xlig	*	*	*
1D	A-	0f	.	1a	.
=9-	=9-	=9-	=9-	=9-	=9-
*	*	*	*	*custos:f	*
2.F\	-gnus	.	.	0a	.
4G\	.	.	.	.	.
*	*	*lig	*	*	*
1A	De-	1e	.	.	.
=10-	=10-	=10-	=10-	=10-	=10-
2D/	-i	1d	.	2f#X,\	-i
*	*Xij	*	*	*	*Xij
2G\	qui	.	.	2g\	qui
*	*	*Xlig	*	*	*
2C/	tol-	1e	.	2g\	tol-
2C/	-lis	.	.	2g\	-lis
=11-	=11-	=11-	=11-	=11-	=11-
2F\	pec-	0c	.	2a\	pec-
1F	-ca-	.	.	1a	-ca-
*custos:G	*	*	*	*	*
2E\	-ta	.	.	2g\	-ta
=12-	=12-	=12-	=12-	=12-	=12-
*	*	*lig	*	*	*
!LO:LB:g=original	!	!	!	!	!
1G	mun-	1B-	.	1g	mu(n)-
1D	-di	1A	.	2fny\	-di
.	.	.	.	2.f\	mi-
*	*	*Xlig	*	*	*
=13-	=13-	=13-	=13-	=13-	=13-
2.BB-/	[[mi-	1d	.	.	.
.	.	.	.	4f\	-ſe-
.	.	.	.	1f	-re-
4BB-/	-ſe-	.	.	.	.
2F\	-re-	1c,	-i	.	.
2E\	-re	.	.	2g\	-re
=14-	=14-	=14-	=14-	=14-	=14-
*	*	*lig	*	*	*
2F\	no-	1c	qui	2f\	no-
*	*	*	*	*custos:c	*
2C/	-bis]]	.	.	2e\	-bis
*	*ij	*	*	*	*ij
!	!	!	!	!LO:LB:g=original	!
2.F\	mi-	1B-	.	2.cny/	mi-
4D/	-ſe-	.	.	4d\	-ſe-
*	*	*Xlig	*	*	*
=15-	=15-	=15-	=15-	=15-	=15-
*	*	*lig	*	*	*
2C/	-re-	1c	.	2e\	-re-
1F	-re	.	.	2f\	-re
*	*	*custos:A	*	*	*
.	.	1G	.	1g	no-
2E\	no-	.	.	.	.
*	*	*Xlig	*	*	*
=16-	=16-	=16-	=16-	=16-	=16-
!	!	!LO:LB:g=original	!	!	!
1F	-bis	1A	.	1f	-bis
*	*Xij	*	*	*	*Xij
2.D/	mi-	0F	.	2.f\	mi-
*custos:BB-	*	*	*	*	*
4C/	-ſe-	.	.	4e\	-ſe-
=17-	=17-	=17-	=17-	=17-	=17-
!LO:LB:g=original	!	!	!	!	!
2BB-/	-re-	.	.	2d\	-re-
2AA/	-re	.	.	2c/	-re
*	*	*lig	*	*	*
1C	no-	1E	.	1c	no-
=18-	=18-	=18-	=18-	=18-	=18-
!	!	!	!	!LO:TX:b:t=P:problem=# below	!
!	!	!	!	!LO:N:acc=#	!
2GG,</	-bis	1D	.	2Bn/	-bis
*	*ij	*	*	*	*
1GG	mi-	.	.	1d	mi-
*	*	*Xlig	*	*	*
.	.	1G	tol-	.	.
*	*	*	*	*custos:d	*
2GG/	-ſe-	.	.	2d\	-ſe-
=19-	=19-	=19-	=19-	=19-	=19-
!	!	!	!	!LO:LB:g=original	!
1.D	-re-	1F	-lis	2d\	-re-
.	.	.	.	2d\	-re
.	.	1F	pec-	1d	no-
2D/	-re	.	.	.	.
=20-	=20-	=20-	=20-	=20-	=20-
2AA/	no-	1E	-ca-	1c	-bis
2AA,</	-bis	.	.	.	.
2.BB-/	mi-	1D	-ta	2.d\	mi-
4BB-/	-ſe-	.	.	4d\	-ſe-
=21-	=21-	=21-	=21-	=21-	=21-
*	*	*lig	*	*	*
2BB-/	-re-	1F	mun-	2d\	-re-
2FF/	-re	.	.	4c\	-re
.	.	.	.	2f\	no-
*custos:FF	*	*	*	*	*
1C	no-	1G	.	.	.
.	.	.	.	8e\L	.
.	.	.	.	8d\J	.
.	.	.	.	2e\	.
*	*	*Xlig	*	*	*
=22-	=22-	=22-	=22-	=22-	=22-
*	*	*lig	*	*	*
*	*	*	*	*custos:d	*
!LO:LB:g=original	!	!	!	!	!
2FF,</	-bis	1F	.	1f	-bis
*	*Xij	*	*	*	*
1F	mi-	.	.	.	.
*	*	*	*	*	*ij
*	*	*custos:A	*	*	*
!	!	!	!	!LO:PB:g=original	!
.	.	1G	.	2d\	mi-
2E\	-ſe-	.	.	2e\	-ſe-
*	*	*Xlig	*	*	*
=23-	=23-	=23-	=23-	=23-	=23-
!	!	!LO:LB:g=original	!	!	!
1D	-re-	1A	-di	1f	-re-
*	*	*lig	*	*	*
1C	-re	1c	mi-	1e	-re
=24-	=24-	=24-	=24-	=24-	=24-
1G	no-	1d	.	1g	no-
*	*	*Xlig	*	*	*
*	*	*lig	*	*	*
2C,</	-bis	1c	.	2e,\	-bis
*	*ij	*	*	*	*Xij
1F\	mi-	.	.	1a\	mi-
=25-	=25-	=25-	=25-	=25-	=25-
.	.	1d	.	.	.
2G\	-ſe-	.	.	2g\	-ſe-
*	*	*Xlig	*	*	*
2D/	-re-	0f	.	2a\	-re-
2D/	-re	.	.	2a\	-re
=26-	=26-	=26-	=26-	=26-	=26-
1F	no-	.	.	1a	no-
*	*	*lig	*	*	*
2C,</	-bis	1e	.	0g	-bis
1c\	mi-	.	.	.	.
=27-	=27-	=27-	=27-	=27-	=27-
.	.	1d,	.	.	.
2B-\	-ſe-	.	.	.	.
*	*	*Xlig	*	*	*
*	*	*lig	*	*	*
1.A	-re-	1e	.	2r	.
*	*	*	*	*	*ij
.	.	.	.	1a\	mi-
=28-	=28-	=28-	=28-	=28-	=28-
.	.	1c	.	.	.
*custos:F	*	*	*	*	*
2E\	-re	.	.	2g\	-ſe-
*	*	*Xlig	*	*	*
!LO:LB:g=original	!	!	!	!	!
2F\	no-	1c	-ſe-	2f\	-re-
*	*	*	*	*custos:d	*
2C,</	-bis	.	.	2e\	-re
*	*Xij	*	*	*	*
=29-	=29-	=29-	=29-	=29-	=29-
*	*	*lig	*	*	*
!	!	!	!	!LO:LB:g=original	!
1.G	mi-	1B-	.	1d	no-
.	.	1A	.	1d	-bis
*	*	*	*	*	*Xij
2F\	-ſe-	.	.	.	.
*	*	*Xlig	*	*	*
=30-	=30-	=30-	=30-	=30-	=30-
*	*	*custos:c	*	*	*
2D/	-re-	1d	-re-	2.f\	mi-
2D/	-re	.	.	.	.
.	.	.	.	4f\	-ſe-
!	!	!LO:LB:g=original	!	!	!
1F	no-	1c	-re	2f\	-re-
.	.	.	.	2f\	-re
=31-	=31-	=31-	=31-	=31-	=31-
*	*	*lig	*	*	*
2C,</	-bis	1c	no-	2e\	no-
*	*ij	*	*	*	*
1F	mi-	.	.	2f\	-bis
.	.	1A	.	2.a\	mi-
2D/	-ſe-	.	.	.	.
.	.	.	.	4f\	-ſe-
*	*	*Xlig	*	*	*
=32-	=32-	=32-	=32-	=32-	=32-
*	*	*lig	*	*	*
2E\	-re-	1c	.	2g\	-re-
1F	-re	.	.	2f\	-re
.	.	1G	.	2d\	no-
2E\	no-	.	.	2e\	-bis
*	*	*Xlig	*	*	*
=33-	=33-	=33-	=33-	=33-	=33-
*	*	*	*	*custos:f	*
2F,<\	-bis	1A	.	2r	.
!	!	!	!	!LO:LB:g=original	!
1D	mi-	.	.	1f	mi-
.	.	1F	.	.	.
2BB-/	-ſe-	.	.	2d\	-ſe-
=34-	=34-	=34-	=34-	=34-	=34-
2C/	-re-	1E	.	1c	-re-
2AA/	-re	.	.	.	.
*lig	*	*	*	*	*
1BB-	no-	1D	.	2d\	-re
.	.	.	.	2.f\	no-
=35-	=35-	=35-	=35-	=35-	=35-
1C	.	1G	.	.	.
.	.	.	.	8e\L	.
.	.	.	.	8d\J	.
.	.	.	.	2e\	-bis.
*Xlig	*	*	*	*	*
*custos:F	*	*custos:c	*	*	*
1FFl	-bis	1Fl/	-bis	1fl\	.
*	*Xij	*	*	*	*
=36||-	=36||-	=36||-	=36||-	=36||-	=36||-
!LO:PB:g=original	!	!LO:LB:g=original	!	!	!
1F	A-	1c	A-	1f	A-
2F\	-gnus	1A	-gnus	2f\	-gnus
2.F\	De-	.	.	2.a\	De-
=37-	=37-	=37-	=37-	=37-	=37-
.	.	1c	De-	.	.
*	*	*	*	*custos:f	*
4C,</	-i	.	.	4g\	.
*	*ij	*	*	*	*
!	!	!	!	!LO:LB:g=original	!
1F	A-	.	.	2f\	-i
*	*	*	*	*	*ij
.	.	1G	-i	2d\	A-
2E\	-gnus	.	.	2e\	-gnus
=38-	=38-	=38-	=38-	=38-	=38-
1D	De-	1A	qui	1f	De-
2D,</	-i	0F	.	2d,\	-i
*	*Xij	*	*	*	*Xij
2BB-/	qui	.	.	2d\	qui
=39-	=39-	=39-	=39-	=39-	=39-
2BB-/	tol-	.	.	2.d\	tol-
2FF/	-lis	.	.	.	.
.	.	.	.	4c/	-lis
*	*	*lig	*	*	*
2C/	pec-	1E	.	2c/	pec-
2AA/	-ca-	.	.	2c/	-ca-
=40-	=40-	=40-	=40-	=40-	=40-
1BB-	-ta	1D	.	4d\	-ta
.	.	.	.	4e\	.
.	.	.	.	2.f\	.
*	*	*Xlig	*	*	*
1C	mun-	1G	tol-	.	.
.	.	.	.	8e\L	.
.	.	.	.	8d\J	.
*	*	*	*	*custos:f	*
.	.	.	.	2e\	mun-
=41-	=41-	=41-	=41-	=41-	=41-
*	*	*custos:F	*	*	*
!LO:LB:g=original	!	!	!	!LO:LB:g=original	!
2FF,</	-di	1F	-lis	2f\	-di
2F\	pec-	.	.	2c/	pec-
!	!	!LO:PB:g=original	!	!	!
2D/	-ca-	1F	pec-	2d\	-ca-
2D/	-ta	.	.	1d\	-ta
=42-	=42-	=42-	=42-	=42-	=42-
1AA	mun-	1E	-ca-	.	.
!	!	!	!	!LO:TX:b:t=P:problem=# below	!
.	.	.	.	2c#X/	mun-
2D,</	-di	1D	-ta	2d,\	-di
*	*ij	*	*	*	*
2BB-/	pec-	.	.	2f\	p(e)c-
=43-	=43-	=43-	=43-	=43-	=43-
*	*	*lig	*	*	*
2BB-/	-ca-	1F	mun-	2d\	-(ca)-
2FF/	-ta	.	.	1f	-ta
1C	mun-	1G	.	.	.
.	.	.	.	2e\	mun-
*	*	*Xlig	*	*	*
=44-	=44-	=44-	=44-	=44-	=44-
*	*	*lig	*	*	*
2FF,/	-di	1F	.	2f,\	-di
*	*Xij	*	*	*	*
1F	mi-	.	.	2f\	mi-
.	.	1G	.	2d\	-ſe-
*	*	*	*	*custos:f	*
2E\	-ſe-	.	.	2e\	-re-
*	*	*Xlig	*	*	*
=45-	=45-	=45-	=45-	=45-	=45-
!	!	!	!	!LO:PB:g=original	!
1D	-re-	1A	-di	2f\	-re
.	.	.	.	2f\	no-
*	*	*lig	*	*	*
1C	-re	1c	mi-	2e\	-bis
.	.	.	.	1g\	mi-
=46-	=46-	=46-	=46-	=46-	=46-
1G	no-	1d	.	.	.
.	.	.	.	2g\	-ſe-
*	*	*Xlig	*	*	*
*	*	*lig	*	*	*
2C,</	-bis	1c	.	2e\	-re-
*	*ij	*	*	*	*
1F\	mi-	.	.	2f\	-re
=47-	=47-	=47-	=47-	=47-	=47-
.	.	1d	.	2a\	no-
2G\	-ſe-	.	.	2g\	-bis
*	*	*Xlig	*	*	*
*	*	*custos:e	*	*	*
!LO:LB:g=original	!	!	!	!	!
2D/	-re-	0f	.	1.a	mi-
2D/	-re	.	.	.	.
=48-	=48-	=48-	=48-	=48-	=48-
1F	no-	.	.	.	.
.	.	.	.	2a\	-ſe-
*	*	*lig	*	*	*
!	!	!LO:LB:g=original	!	!	!
2C,</	-bis	1e	.	1g	-re-
*	*Xij	*	*	*	*
1c\	mi-	.	.	.	.
=49-	=49-	=49-	=49-	=49-	=49-
.	.	1d	.	2g\	-re
2B-\	-ſe-	.	.	2g\	no-
*	*	*Xlig	*	*	*
*	*	*lig	*	*	*
*	*	*	*	*custos:g	*
2A\	-re-	1e	.	2a\	-b(is)
!	!	!	!	!LO:LB:g=original	!
2E\	-re	.	.	2.g\	mi-
=50-	=50-	=50-	=50-	=50-	=50-
1F	no-	1c	.	.	.
.	.	.	.	4f\	-ſe-
.	.	.	.	1f	-re-
*	*	*Xlig	*	*	*
1C,<	-bis	1c	-ſe-	.	.
.	.	.	.	2e\	-re
=51-	=51-	=51-	=51-	=51-	=51-
*	*ij	*lig	*	*	*
1.G	mi-	1B-	.	1d	no-
.	.	1A	.	1d	-bis
2F\	-ſe-	.	.	.	.
*	*	*Xlig	*	*	*
=52-	=52-	=52-	=52-	=52-	=52-
2D/	-re-	1d	-re-	1.f	mi-
2D/	-re	.	.	.	.
*custos:C	*	*	*	*	*
1F	no-	1c	-re	.	.
.	.	.	.	2f\	-ſe-
=53-	=53-	=53-	=53-	=53-	=53-
*	*	*lig	*	*	*
!LO:LB:g=original	!	!	!	!	!
2C,/	-bis	1c	no-	2e\	-re-
1F	mi-	.	.	2f\	-re
.	.	1A	.	1f	no-
2D/	-ſe-	.	.	.	.
*	*	*Xlig	*	*	*
=54-	=54-	=54-	=54-	=54-	=54-
*	*	*lig	*	*	*
2C/	-re-	1c	.	2e\	-b(is)
1F	-re	.	.	2f\	mi-
*	*	*custos:A	*	*	*
.	.	1G	.	2d\	-ſe-
*	*	*	*	*custos:c	*
2F\	no-	.	.	2e\	-re-
*	*	*Xlig	*	*	*
=55-	=55-	=55-	=55-	=55-	=55-
!	!	!LO:LB:g=original	!	!LO:LB:g=original	!
1F,<	-bis	1A	.	2cny\	-re
*	*Xij	*	*	*	*
.	.	.	.	1f	no-
1.D	mi-	0F	.	.	.
.	.	.	.	2d\	-bias
=56-	=56-	=56-	=56-	=56-	=56-
.	.	.	.	2.d\	mi-
2BB-/	-ſe-	.	.	.	.
.	.	.	.	4d\	-ſe-
2C/	-re-	1E	.	2c\	-re-
2AA/	-re	.	.	2c\	-re
=57-	=57-	=57-	=57-	=57-	=57-
*lig	*	*	*	*	*
1BB-	no-	1D	.	4d\	no-
.	.	.	.	4e\	.
.	.	.	.	1f	.
1C	.	1G	-bis.	.	.
.	.	.	.	2e\	-bis
*Xlig	*	*	*	*	*
=58-	=58-	=58-	=58-	=58-	=58-
0FF	-bis	0Fl;>	.	0fl\	.
=-	=-	=-	=-	=-	=-
*-	*-	*-	*-	*-	*-
!!!system-decoration: [(s1,s2,s3)]
!!!RDF**kern: < = below
!!!RDF**kern: > = above
!!!RDF**kern: l = terminal long
!!!ENC: Anastazja Marusiak
!!!END: 2022-01-20
!!!ENC: Marta Chmielewska
!!!END: 2022-01-26
